!!!OTL: No_178_Come,_Dance.krn
!!!REG: Great_Lakes
!!!LANG: Non-Tone
!!!LING_GROUP: Algonquin
!!!SOCIAL_FUNCTION: woman's dance songs
**kern	**kern
*staff2	*staff1
=1-	=1-
*clefF4	*clefF4
*k[b-]	*k[b-]
*M2/4	*M2/4
4r	2d\
8r	.
8GG/	.
=2	=2
12GG^/	4f\
12r	.
12GG/	.
12GG^/	4d\
12r	.
12GG/	.
=3||	=3||
*M3/4	*M3/4
2.r	8d\L
.	8d\J
.	8d\L
.	8A\J
.	4d\
=4||	=4||
*M2/4	*M2/4
2r	4B-\
.	8d\L
.	8A\J
=5	=5
2r	8A\L
.	8F\J
.	4F\
=6	=6
2r	16d\LL
.	16d\
.	16d\
.	16d\JJ
.	4r
=7	=7
2r	8.d\L
.	16B-\Jk
.	4d\
=8	=8
2r	4B-\
.	8d\L
.	8A\J
=9	=9
2r	8A\L
.	8F\J
.	8F\L
.	8E\J
=10	=10
2r	8D\L
.	[8F\J
.	8F\L]
.	8E\J
=11	=11
2r	8D\L
.	[8F\J
.	8F\L]
.	8E\J
=12	=12
2r	8D\L
.	8D\J
.	4D\
=13	=13
2r	2D\
==	==
*-	*-
